src/img/confirmación-acordeon.svg

<svg width="32" height="34" viewBox="0 0 32 34" fill="none" xmlns="http://www.w3.org/2000/svg">
<path d="M16 6.74539C15.4062 6.74539 14.8125 6.80789 14.2188 6.93289C13.625 7.04227 13.0469 7.21414 12.4844 7.44852C11.6562 7.80789 10.9062 8.26883 10.2344 8.83133C9.5625 9.39383 8.98438 10.0345 8.5 10.7532C8.03125 11.472 7.66406 12.2532 7.39844 13.097C7.14844 13.9251 7.02344 14.7923 7.02344 15.6985C7.02344 16.9329 7.25781 18.097 7.72656 19.1907C8.19531 20.2845 8.82812 21.2376 9.625 22.0501C10.4375 22.8626 11.3906 23.5032 12.4844 23.972C13.5781 24.4407 14.7422 24.6751 15.9766 24.6751C17.2109 24.6751 18.375 24.4407 19.4688 23.972C20.5625 23.5032 21.5156 22.8704 22.3281 22.0735C23.1406 21.261 23.7812 20.3079 24.25 19.2141C24.7188 18.1204 24.9531 16.9563 24.9531 15.722C24.9531 14.4876 24.7188 13.3235 24.25 12.2298C23.7812 11.136 23.1406 10.1829 22.3281 9.37039C21.5312 8.55789 20.5859 7.91727 19.4922 7.44852C18.3984 6.97977 17.2344 6.74539 16 6.74539ZM16 5.73758C17.375 5.73758 18.6719 6.0032 19.8906 6.53445C21.1094 7.05008 22.1719 7.76102 23.0781 8.66727C23.9844 9.57352 24.6953 10.636 25.2109 11.8548C25.7422 13.0735 26.0078 14.3704 26.0078 15.7454C26.0078 17.1204 25.7422 18.4173 25.2109 19.636C24.6953 20.8548 23.9844 21.9173 23.0781 22.8235C22.1719 23.7298 21.1094 24.4407 19.8906 24.9563C18.6719 25.4876 17.375 25.7532 16 25.7532C14.625 25.7532 13.3281 25.4876 12.1094 24.9563C10.8906 24.4407 9.82812 23.7298 8.92188 22.8235C8.01562 21.9173 7.30469 20.8548 6.78906 19.636C6.25781 18.4173 5.99219 17.1204 5.99219 15.7454C5.99219 14.3704 6.25781 13.0735 6.78906 11.8548C7.30469 10.636 8.01562 9.57352 8.92188 8.66727C9.82812 7.76102 10.8906 7.05008 12.1094 6.53445C13.3281 6.0032 14.625 5.73758 16 5.73758ZM14.5234 19.7298C14.5859 19.7298 14.6484 19.722 14.7109 19.7063C14.7734 19.6751 14.8281 19.636 14.875 19.5891L20.9453 13.5891C21.0391 13.4954 21.0859 13.386 21.0859 13.261C21.0859 13.1204 21.0391 13.0032 20.9453 12.9095C20.8516 12.8001 20.7344 12.7454 20.5938 12.7454C20.4688 12.7454 20.3516 12.7923 20.2422 12.886L14.5234 18.5345L11.875 15.886C11.8594 15.886 11.8516 15.886 11.8516 15.886C11.8516 15.8704 11.8438 15.8626 11.8281 15.8626C11.7344 15.7688 11.6172 15.7298 11.4766 15.7454C11.3359 15.7454 11.2188 15.7923 11.125 15.886C11.0312 15.9954 10.9844 16.1204 10.9844 16.261C11 16.386 11.0625 16.4954 11.1719 16.5891L14.1719 19.5891C14.2188 19.636 14.2734 19.6751 14.3359 19.7063C14.3984 19.722 14.4609 19.7298 14.5234 19.7298Z" fill="#EC7000"/>
</svg>

<svg width="32" height="34" fill="none" xmlns="http://www.w3.org/2000/svg"><path d="M16 6.745c-.594 0-1.188.063-1.781.188a8.501 8.501 0 00-1.735.516A9.166 9.166 0 008.5 10.753a9.477 9.477 0 00-1.102 2.344 8.953 8.953 0 00-.375 2.601 8.77 8.77 0 00.704 3.493 9.233 9.233 0 001.898 2.86 9.03 9.03 0 002.86 1.921 8.772 8.772 0 003.492.703 8.773 8.773 0 003.492-.703 9.235 9.235 0 002.86-1.899 9.03 9.03 0 001.921-2.859 8.77 8.77 0 00.703-3.492 8.77 8.77 0 00-.703-3.492 9.03 9.03 0 00-1.922-2.86 8.756 8.756 0 00-2.836-1.921A8.771 8.771 0 0016 6.745zm0-1.007a9.63 9.63 0 013.89.796 9.929 9.929 0 013.188 2.133 9.928 9.928 0 012.133 3.188 9.63 9.63 0 01.797 3.89 9.63 9.63 0 01-.797 3.891 9.927 9.927 0 01-2.133 3.188 9.927 9.927 0 01-3.187 2.132 9.63 9.63 0 01-3.891.797 9.63 9.63 0 01-3.89-.797 9.928 9.928 0 01-3.188-2.133 9.928 9.928 0 01-2.133-3.187 9.63 9.63 0 01-.797-3.89 9.63 9.63 0 01.797-3.891 9.93 9.93 0 012.133-3.188 9.93 9.93 0 013.187-2.133A9.63 9.63 0 0116 5.738zM14.523 19.73a.767.767 0 00.188-.024.625.625 0 00.164-.117l6.07-6a.45.45 0 00.14-.328.477.477 0 00-.14-.351.444.444 0 00-.351-.165.532.532 0 00-.352.141l-5.719 5.649-2.648-2.649h-.023c0-.016-.008-.023-.024-.023a.408.408 0 00-.351-.118.477.477 0 00-.352.141.56.56 0 00-.14.375.508.508 0 00.187.328l3 3a.624.624 0 00.164.117.767.767 0 00.187.024z" fill="#EC7000"/></svg>
